src/activities/menu/resource/all_disabled.svg

<?xml version="1.0" encoding="UTF-8" standalone="no"?>
<!-- Created with Inkscape (http://www.inkscape.org/) -->

<svg
   xmlns:dc="http://purl.org/dc/elements/1.1/"
   xmlns:cc="http://creativecommons.org/ns#"
   xmlns:rdf="http://www.w3.org/1999/02/22-rdf-syntax-ns#"
   xmlns:svg="http://www.w3.org/2000/svg"
   xmlns="http://www.w3.org/2000/svg"
   xmlns:sodipodi="http://sodipodi.sourceforge.net/DTD/sodipodi-0.dtd"
   xmlns:inkscape="http://www.inkscape.org/namespaces/inkscape"
   width="50"
   height="50"
   id="svg2"
   sodipodi:version="0.32"
   inkscape:version="0.91 r13725"
   version="1.0"
   sodipodi:docname="all_disabled.svg">
  <sodipodi:namedview
     id="base"
     pagecolor="#ffffff"
     bordercolor="#666666"
     borderopacity="1.0"
     inkscape:pageopacity="0.0"
     inkscape:pageshadow="2"
     inkscape:zoom="9.8519433"
     inkscape:cx="15.104567"
     inkscape:cy="25.334125"
     inkscape:document-units="px"
     inkscape:current-layer="layer1"
     width="50px"
     height="50px"
     inkscape:window-width="1880"
     inkscape:window-height="1060"
     inkscape:window-x="-2"
     inkscape:window-y="-3"
     showgrid="false"
     inkscape:window-maximized="1" />
  <defs
     id="defs4" />
  <metadata
     id="metadata7">
    <rdf:RDF>
      <cc:Work
         rdf:about="">
        <dc:format>image/svg+xml</dc:format>
        <dc:type
           rdf:resource="http://purl.org/dc/dcmitype/StillImage" />
        <dc:title></dc:title>
        <dc:date>2015</dc:date>
        <dc:creator>
          <cc:Agent>
            <dc:title>Timothée Giet</dc:title>
          </cc:Agent>
        </dc:creator>
        <cc:license
           rdf:resource="http://creativecommons.org/licenses/by-sa/4.0/" />
      </cc:Work>
      <cc:License
         rdf:about="http://creativecommons.org/licenses/by-sa/4.0/">
        <cc:permits
           rdf:resource="http://creativecommons.org/ns#Reproduction" />
        <cc:permits
           rdf:resource="http://creativecommons.org/ns#Distribution" />
        <cc:requires
           rdf:resource="http://creativecommons.org/ns#Notice" />
        <cc:requires
           rdf:resource="http://creativecommons.org/ns#Attribution" />
        <cc:permits
           rdf:resource="http://creativecommons.org/ns#DerivativeWorks" />
        <cc:requires
           rdf:resource="http://creativecommons.org/ns#ShareAlike" />
      </cc:License>
    </rdf:RDF>
  </metadata>
  <g
     inkscape:label="Calque 1"
     inkscape:groupmode="layer"
     id="layer1">
    <path
       d="M 38.662594,26.97344 A 13.804381,13.804381 0 0 1 23.03667,38.664051 13.804381,13.804381 0 0 1 11.3345,23.046781 13.804381,13.804381 0 0 1 26.943107,11.333059 13.804381,13.804381 0 0 1 38.668375,26.932994"
       sodipodi:open="true"
       sodipodi:end="0.14048923"
       sodipodi:start="0.14344896"
       sodipodi:ry="13.804381"
       sodipodi:rx="13.804381"
       sodipodi:cy="25"
       sodipodi:cx="25"
       sodipodi:type="arc"
       id="path4136-3"
       style="color:#000000;display:inline;overflow:visible;visibility:visible;opacity:1;fill:#808080;fill-opacity:1;fill-rule:nonzero;stroke:none;stroke-width:1;stroke-linecap:round;stroke-linejoin:round;stroke-miterlimit:4;stroke-dasharray:none;stroke-dashoffset:0;stroke-opacity:1;marker:none;enable-background:accumulate" />
    <path
       d="M 36.602862,26.67593 A 11.723274,11.723274 0 0 1 23.332656,36.604099 11.723274,11.723274 0 0 1 13.39467,23.341243 11.723274,11.723274 0 0 1 26.65017,13.393446 11.723274,11.723274 0 0 1 36.607772,26.641581"
       sodipodi:open="true"
       sodipodi:end="0.14048923"
       sodipodi:start="0.14344896"
       sodipodi:ry="11.723274"
       sodipodi:rx="11.723274"
       sodipodi:cy="25"
       sodipodi:cx="25"
       sodipodi:type="arc"
       id="path4136"
       style="color:#000000;display:inline;overflow:visible;visibility:visible;opacity:1;fill:#d0d0d0;fill-opacity:1;fill-rule:nonzero;stroke:none;stroke-width:1;stroke-linecap:round;stroke-linejoin:round;stroke-miterlimit:4;stroke-dasharray:none;stroke-dashoffset:0;stroke-opacity:1;marker:none;enable-background:accumulate" />
    <path
       id="path4136-3-3-29"
       d="m 25.933594,0.996094 -0.292969,8.0039063 a 16.029354,16.029354 0 0 1 1.615234,0.1308594 16.029354,16.029354 0 0 1 2.439453,0.5644531 L 32.019531,2.0097659 A 24.056166,24.056166 0 0 0 25.933594,0.996094 Z m -1.900391,0.005859 a 24.056166,24.056166 0 0 0 -3.830078,0.4726562 l 1.613281,7.8320314 a 16.029354,16.029354 0 0 1 2.556641,-0.316406 L 24.033203,1.0019533 Z m -7.787109,1.5917972 a 24.056166,24.056166 0 0 0 -0.9375,0.3886719 l 3.238281,7.3554689 a 16.029354,16.029354 0 0 1 0.626953,-0.25 L 16.246094,2.5937502 Z M 35.478516,3.3535159 32,10.587891 a 16.029354,16.029354 0 0 1 1.976562,1.15625 L 38.462891,5.0605471 A 24.056166,24.056166 0 0 0 35.478516,3.3535159 Z M 12.779297,4.2792972 A 24.056166,24.056166 0 0 0 9.9511719,6.2324221 l 5.0332031,6.2773439 a 16.029354,16.029354 0 0 1 1.873047,-1.314454 L 12.779297,4.2792972 Z m 27.945312,2.501953 -5.246093,6.1113278 a 16.029354,16.029354 0 0 1 0.505859,0.447266 L 41.480469,7.4589846 A 24.056166,24.056166 0 0 0 40.724609,6.7812502 Z M 7.2421875,8.7714846 A 24.056166,24.056166 0 0 0 3.6992188,13.820312 l 7.1250002,3.740235 A 16.029354,16.029354 0 0 1 13.167969,14.1875 L 7.2421875,8.7714846 Z M 42.884766,8.9511721 36.953125,14.322266 a 16.029354,16.029354 0 0 1 1.541016,2.060546 l 6.74414,-4.371093 A 24.056166,24.056166 0 0 0 42.884766,8.9511721 Z m 3.322265,4.6953119 -7.074219,3.830078 a 16.029354,16.029354 0 0 1 1.464844,3.833985 l 7.828125,-1.908203 a 24.056166,24.056166 0 0 0 -2.21875,-5.75586 z M 2.8828125,15.537109 a 24.056166,24.056166 0 0 0 -1.2285156,3.658203 l 7.7910156,1.9375 A 16.029354,16.029354 0 0 1 10.28125,18.703125 L 2.8828125,15.537109 Z m -1.4316406,4.330079 a 24.056166,24.056166 0 0 0 -0.1972657,0.996093 l 7.96875,1.400391 a 16.029354,16.029354 0 0 1 0.1289063,-0.66211 L 1.4511719,19.867188 Z m 47.5722661,3.197265 -8.064454,0.683594 a 16.029354,16.029354 0 0 1 0.0332,2.283203 l 8.076171,0.472656 a 24.056166,24.056166 0 0 0 -0.04492,-3.439453 z M 0.9296875,23.685547 A 24.056166,24.056166 0 0 0 0.98242188,27.125 L 9.0527344,26.417969 a 16.029354,16.029354 0 0 1 -0.046875,-2.28125 L 0.9296875,23.685547 Z m 39.8164065,4.214844 a 16.029354,16.029354 0 0 1 -0.13086,0.660156 l 7.919922,1.761719 a 24.056166,24.056166 0 0 0 0.199219,-0.996094 l -7.988281,-1.425781 z m -31.2968752,0.947265 -7.859375,1.9375 a 24.056166,24.056166 0 0 0 2.2324218,5.751953 l 7.1171874,-3.876953 a 16.029354,16.029354 0 0 1 -1.4902342,-3.8125 z m 31.0585932,0.177735 a 16.029354,16.029354 0 0 1 -0.849609,2.419921 l 7.433594,3.203126 a 24.056166,24.056166 0 0 0 1.238281,-3.65625 l -7.822266,-1.966797 z m -1.404296,3.550781 a 16.029354,16.029354 0 0 1 -2.365235,3.335937 l 5.976563,5.490235 a 24.056166,24.056166 0 0 0 3.55664,-5.041016 l -7.167968,-3.785156 z m -27.515625,1.164062 -6.791016,4.427735 a 24.056166,24.056166 0 0 0 2.3613281,3.052734 l 5.9824219,-5.447265 a 16.029354,16.029354 0 0 1 -1.552734,-2.033204 z m 2.517578,3.011719 -5.5390628,5.958985 a 24.056166,24.056166 0 0 0 0.7578126,0.675781 L 14.617188,37.1875 a 16.029354,16.029354 0 0 1 -0.511719,-0.435547 z m 20.816406,0.814453 a 16.029354,16.029354 0 0 1 -1.871094,1.292969 l 4.115235,7.019531 A 24.056166,24.056166 0 0 0 40,43.933594 l -5.078125,-6.367188 z m -18.806641,0.751953 -4.52539,6.783203 a 24.056166,24.056166 0 0 0 2.990234,1.699219 l 3.50586,-7.341797 a 16.029354,16.029354 0 0 1 -1.970704,-1.140625 z m 15.251954,1.378907 a 16.029354,16.029354 0 0 1 -0.623047,0.246093 l 2.951171,7.613282 a 24.056166,24.056166 0 0 0 0.9375,-0.386719 l -3.265624,-7.472656 z m -10.986329,0.630859 -2.33789,7.808594 a 24.056166,24.056166 0 0 0 6.08789,0.996093 L 24.40625,41 a 16.029354,16.029354 0 0 1 -1.685547,-0.132812 16.029354,16.029354 0 0 1 -2.339844,-0.539063 z m 7.81836,0.363281 a 16.029354,16.029354 0 0 1 -2.535157,0.314453 l 0.367188,8.117188 a 24.056166,24.056166 0 0 0 3.828125,-0.484375 l -1.660156,-7.947266 z"
       style="color:#000000;display:inline;overflow:visible;visibility:visible;opacity:1;fill:#808080;fill-opacity:1;fill-rule:nonzero;stroke:none;stroke-width:1;stroke-linecap:round;stroke-linejoin:round;stroke-miterlimit:4;stroke-dasharray:none;stroke-dashoffset:0;stroke-opacity:1;marker:none;enable-background:accumulate"
       inkscape:connector-curvature="0" />
  </g>
</svg>

<!--Created with Inkscape (http://www.inkscape.org/)--><svg xmlns:dc="http://purl.org/dc/elements/1.1/" xmlns:cc="http://creativecommons.org/ns#" xmlns:rdf="http://www.w3.org/1999/02/22-rdf-syntax-ns#" xmlns="http://www.w3.org/2000/svg" xmlns:sodipodi="http://sodipodi.sourceforge.net/DTD/sodipodi-0.dtd" xmlns:inkscape="http://www.inkscape.org/namespaces/inkscape" width="50" height="50" sodipodi:version="0.32" inkscape:version="0.91 r13725" version="1.0" sodipodi:docname="all_disabled.svg"><sodipodi:namedview pagecolor="#ffffff" bordercolor="#666666" borderopacity="1.0" inkscape:pageopacity="0.0" inkscape:pageshadow="2" inkscape:zoom="9.8519433" inkscape:cx="15.104567" inkscape:cy="25.334125" inkscape:document-units="px" inkscape:current-layer="layer1" width="50px" height="50px" inkscape:window-width="1880" inkscape:window-height="1060" inkscape:window-x="-2" inkscape:window-y="-3" showgrid="false" inkscape:window-maximized="1"/><metadata><rdf:RDF><cc:Work><dc:format>image/svg+xml</dc:format><dc:type rdf:resource="http://purl.org/dc/dcmitype/StillImage"/><dc:title/><dc:date>2015</dc:date><dc:creator><cc:Agent><dc:title>Timothée Giet</dc:title></cc:Agent></dc:creator><cc:license rdf:resource="http://creativecommons.org/licenses/by-sa/4.0/"/></cc:Work><cc:License rdf:about="http://creativecommons.org/licenses/by-sa/4.0/"><cc:permits rdf:resource="http://creativecommons.org/ns#Reproduction"/><cc:permits rdf:resource="http://creativecommons.org/ns#Distribution"/><cc:requires rdf:resource="http://creativecommons.org/ns#Notice"/><cc:requires rdf:resource="http://creativecommons.org/ns#Attribution"/><cc:permits rdf:resource="http://creativecommons.org/ns#DerivativeWorks"/><cc:requires rdf:resource="http://creativecommons.org/ns#ShareAlike"/></cc:License></rdf:RDF></metadata><g inkscape:label="Calque 1" inkscape:groupmode="layer"><path d="M38.663 26.973a13.804 13.804 0 0 1-15.626 11.691 13.804 13.804 0 0 1-11.702-15.617 13.804 13.804 0 0 1 15.608-11.714 13.804 13.804 0 0 1 11.725 15.6" sodipodi:open="true" sodipodi:end="0.14048923" sodipodi:start="0.14344896" sodipodi:ry="13.804381" sodipodi:rx="13.804381" sodipodi:cy="25" sodipodi:cx="25" sodipodi:type="arc" style="color:#000;display:inline;overflow:visible;visibility:visible;opacity:1;fill:gray;fill-opacity:1;fill-rule:nonzero;stroke:none;stroke-width:1;stroke-linecap:round;stroke-linejoin:round;stroke-miterlimit:4;stroke-dasharray:none;stroke-dashoffset:0;stroke-opacity:1;marker:none;enable-background:accumulate"/><path d="M36.603 26.676a11.723 11.723 0 0 1-13.27 9.928 11.723 11.723 0 0 1-9.938-13.263 11.723 11.723 0 0 1 13.255-9.948 11.723 11.723 0 0 1 9.958 13.249" sodipodi:open="true" sodipodi:end="0.14048923" sodipodi:start="0.14344896" sodipodi:ry="11.723274" sodipodi:rx="11.723274" sodipodi:cy="25" sodipodi:cx="25" sodipodi:type="arc" style="color:#000;display:inline;overflow:visible;visibility:visible;opacity:1;fill:#d0d0d0;fill-opacity:1;fill-rule:nonzero;stroke:none;stroke-width:1;stroke-linecap:round;stroke-linejoin:round;stroke-miterlimit:4;stroke-dasharray:none;stroke-dashoffset:0;stroke-opacity:1;marker:none;enable-background:accumulate"/><path d="M25.934.996 25.64 9a16.03 16.03 0 0 1 1.615.13 16.03 16.03 0 0 1 2.44.565L32.02 2.01A24.056 24.056 0 0 0 25.934.996zm-1.9.006a24.056 24.056 0 0 0-3.83.473l1.612 7.832a16.03 16.03 0 0 1 2.557-.317l-.34-7.988zm-7.788 1.592a24.056 24.056 0 0 0-.937.388l3.238 7.356a16.03 16.03 0 0 1 .627-.25l-2.928-7.494zm19.233.76L32 10.588a16.03 16.03 0 0 1 1.977 1.156l4.486-6.683a24.056 24.056 0 0 0-2.984-1.707zm-22.7.925a24.056 24.056 0 0 0-2.828 1.953l5.033 6.278a16.03 16.03 0 0 1 1.873-1.315L12.78 4.28zm27.946 2.502-5.246 6.112a16.03 16.03 0 0 1 .505.447l5.496-5.881a24.056 24.056 0 0 0-.755-.678zM7.242 8.771a24.056 24.056 0 0 0-3.543 5.05l7.125 3.74a16.03 16.03 0 0 1 2.344-3.373L7.242 8.77zm35.643.18-5.932 5.371a16.03 16.03 0 0 1 1.541 2.06l6.744-4.37a24.056 24.056 0 0 0-2.353-3.06zm3.322 4.695-7.074 3.83a16.03 16.03 0 0 1 1.465 3.835l7.828-1.909a24.056 24.056 0 0 0-2.219-5.756zM2.883 15.537a24.056 24.056 0 0 0-1.229 3.658l7.791 1.938a16.03 16.03 0 0 1 .836-2.43l-7.398-3.166zm-1.432 4.33a24.056 24.056 0 0 0-.197.996l7.969 1.4a16.03 16.03 0 0 1 .129-.661l-7.9-1.735zm47.572 3.197-8.064.684a16.03 16.03 0 0 1 .033 2.283l8.076.473a24.056 24.056 0 0 0-.045-3.44zM.93 23.686a24.056 24.056 0 0 0 .052 3.439l8.07-.707a16.03 16.03 0 0 1-.046-2.281L.93 23.686zM40.746 27.9a16.03 16.03 0 0 1-.13.66l7.92 1.762a24.056 24.056 0 0 0 .198-.996L40.746 27.9zm-31.297.948-7.86 1.937a24.056 24.056 0 0 0 2.233 5.752l7.117-3.877a16.03 16.03 0 0 1-1.49-3.812zm31.059.177a16.03 16.03 0 0 1-.85 2.42l7.434 3.203a24.056 24.056 0 0 0 1.238-3.656l-7.822-1.967zm-1.404 3.551a16.03 16.03 0 0 1-2.366 3.336l5.977 5.49a24.056 24.056 0 0 0 3.556-5.04l-7.167-3.786zM11.588 33.74l-6.791 4.428a24.056 24.056 0 0 0 2.361 3.053l5.983-5.448a16.03 16.03 0 0 1-1.553-2.033zm2.517 3.012-5.539 5.959a24.056 24.056 0 0 0 .758.676l5.293-6.2a16.03 16.03 0 0 1-.512-.435zm20.817.814a16.03 16.03 0 0 1-1.871 1.293l4.115 7.02A24.056 24.056 0 0 0 40 43.934l-5.078-6.368zm-18.807.752-4.525 6.784a24.056 24.056 0 0 0 2.99 1.699l3.506-7.342a16.03 16.03 0 0 1-1.97-1.14zm15.252 1.38a16.03 16.03 0 0 1-.623.245l2.951 7.614a24.056 24.056 0 0 0 .938-.387l-3.266-7.473zm-10.986.63-2.338 7.809a24.056 24.056 0 0 0 6.088.996L24.406 41a16.03 16.03 0 0 1-1.685-.133 16.03 16.03 0 0 1-2.34-.539zm7.818.363a16.03 16.03 0 0 1-2.535.315l.367 8.117a24.056 24.056 0 0 0 3.828-.484L28.2 40.69z" style="color:#000;display:inline;overflow:visible;visibility:visible;opacity:1;fill:gray;fill-opacity:1;fill-rule:nonzero;stroke:none;stroke-width:1;stroke-linecap:round;stroke-linejoin:round;stroke-miterlimit:4;stroke-dasharray:none;stroke-dashoffset:0;stroke-opacity:1;marker:none;enable-background:accumulate" inkscape:connector-curvature="0"/></g></svg>
